!!!!SEGMENT: pl-kk--kk-i-268--001_anonim--rorate-caeli.krn
!!!cenid: 16xx:789
!!!COM: Anonim
!!!COM-rismid: pe30004985
!!!CDT:
!!!CNT:
!!!OTL: Rorate caeli
!!!PDT:
!!!AGN: Sacred
!!!SMS-siglum: PL-Kk
!!!SMS-shelfmark: Kk.I.268
!!!SMS-shelfwork: 001 W
!!!SMS-variant:
!!!SMS-altvar:
!!!NIFC-rismid: 1001143716
!!!URL-scan: http://repozytorium.nifc.pl/skany/pl-kk-nut--i-268
!!!ONB-nifc: UWAGA: utwory w zbiorze: 1. Rorate caeli, 2. Sancta et immaculata
**kern	**text	**kern	**text	**kern	**text	**kern	**text
*part4	*part4	*part3	*part3	*part2	*part2	*part1	*part1
*staff4	*staff4	*staff3	*staff3	*staff2	*staff2	*staff1	*staff1
*Iempty	*	*Iempty	*	*Itenor	*	*Ivox	*
*I"Baſso Ripieno.	*	*I"Baſso.	*	*I"Tenore	*	*I"Canto.	*
*I'B rip	*	*I'B	*	*I'T	*	*I'C	*
*clefF4	*	*clefF4	*	*clefC4	*	*clefC1	*
*k[]	*	*k[]	*	*k[]	*	*k[]	*
*a:	*	*a:	*	*a:	*	*a:	*
*M2/1	*	*M2/1	*	*M2/1	*	*M2/1	*
*met(C|)	*	*met(C|)	*	*met(C|)	*	*met(C|)	*
=1-	=1-	=1-	=1-	=1-	=1-	=1-	=1-
!LO:TX:t=P:problem:oznaczenie metryczne C|	!	!	!	!	!	!	!
!LO:TX:a:t=à Capella	!	!LO:TX:t=P:problem:oznaczenie metryczne C|	!	!LO:TX:t=P:problem:kreska pseudotaktowa	!	!LO:TX:t=P:problem:oznaczenie metryczne C|	!
1.A\	.	1.A\	Ro-	2r	.	0r	.
.	.	.	.	1c\	Ro-	.	.
*2\right	*	*2\right	*	*2\right	*	*	*
!LO:TX:t=P:problem:kreska pseudotaktowa	!	!LO:TX:t=P:problem:kreska pseudotaktowa	!	!LO:TX:t=P:problem:kreska pseudotaktowa	!	!	!
2G\	.	2G\	.	2B\	.	.	.
=2-	=2-	=2-	=2-	=2-	=2-	=2-	=2-
2F\	-ra-	2F\	-ra-	2.A\	-ra-	1.a\	Ro-
2F\	-te	2F\	-te	.	.	.	.
!LO:TX:t=P:problem:kreska pseudotaktowa	!	!LO:TX:t=P:problem:kreska pseudotaktowa	!	!LO:TX:t=P:problem:kreska pseudotaktowa	!	!	!
.	.	.	.	4B\	.	.	.
1E\	cae-	1E\	cae-	2c\	.	.	.
!	!	!	!	!	!	!LO:TX:t=P:problem:kreska pseudotaktowa	!
.	.	.	.	2B\	-te	2g/	.
=3-	=3-	=3-	=3-	=3-	=3-	=3-	=3-
!LO:TX:t=P:problem:kreska pionowa na różnych liniach [rozdzielacz słów / znak oddechu]:global	!	!LO:TX:t=P:problem:kreska pionowa na różnych liniach [rozdzielacz słów / znak oddechu]:global	!	!	!	!	!
2AA,/	-li	2AA,/	-li	2rF	.	2f/	-ra-
!	!	!LO:TX:t=P:problem:kreska pseudotaktowa	!	!	!	!LO:TX:t=P:problem:kreska pseudotaktowa	!
2BB/	Ro-	2BB/	Ro-	1G/	Ro-	2f/	-te
2.C/	.	2.C/	.	.	.	1e/	cae-
!LO:TX:t=P:problem:kreska pseudotaktowa	!	!LO:TX:t=P:problem:kreska pseudotaktowa	!	!LO:TX:t=P:problem:kreska pseudotaktowa	!	!	!
.	.	.	.	2F/	.	.	.
4D\	.	4D/	.	.	.	.	.
=4-	=4-	=4-	=4-	=4-	=4-	=4-	=4-
!	!	!	!	!	!	!LO:TX:t=P:problem:kreska pionowa na różnych liniach [rozdzielacz słów / znak oddechu]:global	!
1E\	.	1E\	.	4G/	-ra-	2e,/	-li
.	.	.	.	4A/	.	.	.
*	*	*	*	*	*	*2\right	*
.	.	.	.	4B/	.	2g\	Ro-
.	.	.	.	4G/	.	.	.
1.D\	-ra-	1.D\	-ra-	2d\	.	1a\	.
!	!	!	!	!LO:TX:t=P:problem:kreska pseudotaktowa	!	!	!
.	.	.	.	2A\	.	.	.
=5-	=5-	=5-	=5-	=5-	=5-	=5-	=5-
!	!	!	!	!LO:TX:t=P:problem:kreska pionowa na różnych liniach [rozdzielacz słów / znak oddechu]:global	!	!	!
.	.	.	.	1G/,	-te	2bn\	-ra-
!LO:TX:t=P:problem:kreska pseudotaktowa	!	!LO:TX:t=P:problem:kreska pseudotaktowa	!	!	!	!LO:TX:t=P:problem:kreska pseudotaktowa	!
2C/	.	2C/	.	.	.	2cc\	.
1F\	.	1F\	.	2.A\	Ro-	1.a\	.
.	.	.	.	4B\	.	.	.
=6-	=6-	=6-	=6-	=6-	=6-	=6-	=6-
!LO:TX:t=P:problem:kreska pseudotaktowa	!	!LO:TX:t=P:problem:kreska pseudotaktowa	!	!	!	!	!
1E\	.	1E\	.	(2c\	-ra-	.	.
!	!	!	!	!LO:TX:t=P:problem:kreska pseudotaktowa	!	!LO:TX:t=P:problem:kreska pseudotaktowa	!
.	.	.	.	2B\)	.	2g#X/	.
4AA,/	-te	4AA,/	-te	4A,\	-te	4a,\	-te
2A\	Cae-	2A\	Cae-	2c\	cae-	2a\	cae-
!LO:TX:t=P:problem:kreska pseudotaktowa	!	!LO:TX:t=P:problem:kreska pseudotaktowa	!	!LO:TX:t=P:problem:kreska pseudotaktowa	!	!LO:TX:t=P:problem:kreska pseudotaktowa	!
4A\	-li	4A\	-li	4c\	-li	4a\	-li
=7-	=7-	=7-	=7-	=7-	=7-	=7-	=7-
2.G\	de-	2.G\	de-	2.d\	de-	2.b\	de-
!	!	!LO:TX:t=P:problem:kreska pseudotaktowa	!	!LO:SIC:v:t=custos e	!	!	!
4G\	-ſu-	4G\	-su-	4d\	-su-	4b\	-su-
!	!	!	!	!LO:LB:g=original	!	!	!
!	!	!	!	!	!	!LO:TX:t=P:problem:kreska pseudotaktowa	!
2C,/	-per	2C,/	-per	2e,\	-per	1cc\,	-per
2.F\	de-	2.F\	de-	2.A/	de-	.	.
=8-	=8-	=8-	=8-	=8-	=8-	=8-	=8-
.	.	.	.	.	.	1.cc\	de-
4G\	.	4G\	.	4B\	.	.	.
!	!	!	!	!LO:TX:t=P:problem:kreska pseudotaktowa	!	!	!
2A\	.	1A\	.	2c\	.	.	.
2A\	.	.	.	2A/	-su-	.	.
!	!	!LO:TX:t=P:problem:kreska pseudotaktowa	!	!	!	!LO:TX:t=P:problem:kreska pseudotaktowa	!
2G\	-su-	2G\	-su-	2B/	.	2b\	-su-
!	!	!	!	!	!	!LO:LB:g=original	!
!	!	!LO:LB:g=original	!	!	!	!	!
=9-	=9-	=9-	=9-	=9-	=9-	=9-	=9-
2A,\	-per	2A,\	-per	2c,\	-per	2a,\	-per
!LO:TX:t=P:problem:kreska pseudotaktowa	!	!LO:TX:t=P:problem:kreska pseudotaktowa	!	!LO:TX:t=P:problem:kreska pseudotaktowa	!	!	!
2E\	et	2E\	et	2B\	et	2g#X\	et
2E\	nu-	2E\	nu-	2B\	nu-	2g#X/	nu-
!	!	!	!	!	!	!LO:TX:t=P:problem:kreska pseudotaktowa	!
2A\	-bes	2A,\	-bes	2c,\	-bes	2a,/	-bes
=10-	=10-	=10-	=10-	=10-	=10-	=10-	=10-
2A\	plu-	2A\	plu-	2e\	plu-	2cc\	plu-
!LO:TX:t=P:problem:kreska pseudotaktowa	!	!LO:TX:t=P:problem:kreska pseudotaktowa	!	!LO:TX:t=P:problem:kreska pseudotaktowa	!	!LO:TX:t=P:problem:kreska pseudotaktowa	!
2E,\	-ant	2E\	-ant	2e\	-ant	2b\	-ant
*	*ij	*	*	*	*ij	*	*
2F\	nu-	2F\	nu-	2c\	plu-	2a\	nu-
!	!	!LO:TX:t=P:problem:kreska pseudotaktowa	!	!LO:TX:t=P:problem:kreska pseudotaktowa	!	!LO:TX:t=P:problem:kreska pseudotaktowa	!
2C/	-bes	2C/	-bes	2e\	-ant	2cc\	-bes
*	*	*	*	*	*Xij	*	*
=11-	=11-	=11-	=11-	=11-	=11-	=11-	=11-
2G\	plu-	2G\	plu-	(2d\	Ju-	2b\	plu-
!	!	!LO:TX:t=P:problem:kreska pseudotaktowa	!	!	!	!	!
2A,\	-ant	2A\	-ant	2c\)	.	1cc\	-ant
*	*Xij	*	*	*	*	*	*
!	!	!LO:TX:t=P:problem:kreska pseudotaktowa	!	!LO:TX:t=P:problem:kreska pseudotaktowa	!	!	!
1G\	Ju-	1G\	Ju-	1d\	.	.	.
!	!	!	!	!	!	!LO:TX:t=P:problem:kreska pseudotaktowa	!
.	.	.	.	.	.	2b\	Ju-
=12-	=12-	=12-	=12-	=12-	=12-	=12-	=12-
2C,/	-stu(m)	2C,/	-stu(m)	2e,\	-stum	2cc,\	-stum
!LO:TX:t=P:problem:kreska pseudotaktowa	!	!LO:TX:t=P:problem:kreska pseudotaktowa	!	!LO:TX:t=P:problem:kreska pseudotaktowa	!	!LO:TX:t=P:problem:kreska pseudotaktowa	!
2C/	et	2C/	et	2c\	et	2g/	et
2D\	nu-	2D\	nu-	2A/	nu-	2fn/	nu-
2E\	-bes	2E\	-bes	2G/	-bes	2e/	-bes
=13-	=13-	=13-	=13-	=13-	=13-	=13-	=13-
!LO:TX:t=P:problem:kreska pseudotaktowa	!	!LO:TX:t=P:problem:kreska pseudotaktowa	!	!LO:TX:t=P:problem:kreska pseudotaktowa	!	!LO:TX:t=P:problem:kreska pseudotaktowa	!
1F\	plu-	1F\	plu-	1A\	plu-	1a\	plu-
2E,\	-ant	2E,\	-ant	2B,\	-ant	2g#X,\	-ant
*	*ij	*	*ij	*	*ij	*	*
1AA/	plu-	1AA/	plu-	1c\	plu-	1a\	plu-
=14-	=14-	=14-	=14-	=14-	=14-	=14-	=14-
!	!	!	!	!LO:TX:t=P:problem:kreska pseudotaktowa	!	!	!
2GG/	.	2GG/	.	2B\	-ant	2b\	.
*	*	*	*	*	*Xij	*	*
!	!	!LO:TX:t=P:problem:kreska pseudotaktowa	!	!	!	!LO:TX:t=P:problem:kreska pseudotaktowa	!
1AA/,	-ant	1AA/	-ant	1A\	Ju-	1cc\,	-ant
*	*Xij	*	*Xij	*	*	*	*
=15-	=15-	=15-	=15-	=15-	=15-	=15-	=15-
2E\	nu-	2E\	nu-	2G,/	-stu(m)	2b\	nu-
!	!	!	!	!LO:TX:t=P:problem:kreska pseudotaktowa	!	!LO:TX:t=P:problem:kreska pseudotaktowa	!
!	!	!LO:TX:t=P:problem:kreska pseudotaktowa	!	!LO:SIC:v:t=custos c	!	!LO:SIC:v:t=custos g	!
2AA,/	-bes	2AA/	-bes	2c\	plu-	2a\	-bes
!	!	!	!	!LO:LB:g=original	!	!	!
2C/	plu-	2C/	plu-	2c,\	-ant	2g/	plu-
!LO:TX:t=P:problem:kreska pseudotaktowa	!	!	!	!	!	!	!
2D/	-ant	2D/	-ant	1A\	Ju-	2f/	-ant
!LO:LB:g=original	!	!	!	!	!	!	!
=16-	=16-	=16-	=16-	=16-	=16-	=16-	=16-
!	!	!LO:SIC:v:t=custos AA	!	!	!	!LO:TX:t=P:problem:kreska pseudotaktowa	!
!	!	!LO:TX:t=P:problem:kreska pseudotaktowa	!	!	!	!	!
1E\	Ju-	1E\	Ju-	.	.	1e/	Ju-
.	.	.	.	2G#X/	-stu(m)	.	.
!	!	!LO:LB:g=original	!	!	!	!	!
2AA/	-stum	2AA,/	-stum	2A,\	a-	2e,/	-stum
!LO:TX:t=P:problem:kreska pseudotaktowa	!	!LO:TX:t=P:problem:kreska pseudotaktowa	!	!LO:TX:t=P:problem:kreska pseudotaktowa	!	!LO:TX:t=P:problem:kreska pseudotaktowa	!
2A\	a-	2A\	a-	2A\	-pe-	2e/	a-
=17-	=17-	=17-	=17-	=17-	=17-	=17-	=17-
2A\	-pe-	2A\	-pe-	2A\	-ri-	2e/	-pe-
!	!	!LO:TX:t=P:problem:kreska pseudotaktowa	!	!LO:TX:t=P:problem:kreska pseudotaktowa	!	!	!
2A\	-ri-	2A\	-ri-	[2c\	-a-	2a\	-ri-
2F\	-a-	2F\	-a-	2c\]	.	2a\	-a-
!LO:TX:t=P:problem:kreska pseudotaktowa	!	!	!	!	!	!LO:TX:t=P:problem:kreska pseudotaktowa	!
2C/	-tur	2C/	-tur	2A/	.	2g\	-tur
=18-	=18-	=18-	=18-	=18-	=18-	=18-	=18-
!	!	!	!	!	!	!LO:TX:t=P:problem:kreska pseudotaktowa	!
1D\	ter-	1D\	ter-	2A,/	-tur	1f/	ter-
!	!	!	!	!LO:TX:t=P:problem:kreska pseudotaktowa	!	!	!
.	.	.	.	2A\	a-	.	.
2AA,/	-ra	2AA,/	-ra	2c\	-pe-	2e,/	-ra
!LO:TX:t=P:problem:kreska pseudotaktowa	!	!LO:TX:t=P:problem:kreska pseudotaktowa	!	!LO:TX:t=P:problem:kreska pseudotaktowa	!	!	!
2A\	a-	2A\	a-	2c\	-ri-	2a\	a-
=19-	=19-	=19-	=19-	=19-	=19-	=19-	=19-
2A\	-pe-	2A\	-pe-	1.c\	-a-	2a\	-pe-
!	!	!	!	!	!	!LO:TX:t=P:problem:kreska pseudotaktowa	!
2A\	-ri-	2A\	-ri-	.	.	2a\	-ri-
1.F\	-a-	1.F\	-a-	.	.	1.a\	-a-
.	.	.	.	2c\	-tur	.	.
=20-	=20-	=20-	=20-	=20-	=20-	=20-	=20-
.	.	.	.	(1c\	ter-	.	.
!LO:TX:t=P:problem:kreska pseudotaktowa	!	!	!	!	!	!	!
2C/	-tur	2C/	-tur	.	.	2g\	-tur
!	!	!LO:TX:t=P:problem:kreska pseudotaktowa	!	!LO:TX:t=P:problem:kreska pseudotaktowa	!	!LO:TX:t=P:problem:kreska pseudotaktowa	!
1G\	ter-	1G\	ter-	1B\)	.	1g\	ter-
=21-	=21-	=21-	=21-	=21-	=21-	=21-	=21-
2C,/	-ra	2C,/	-ra	2c,\	-ra	2g,/	-ra
!LO:TX:t=P:problem:kreska pseudotaktowa	!	!LO:TX:t=P:problem:kreska pseudotaktowa	!	!	!	!	!
2C/	ter-	2C/	ter-	2c\	ter-	1g\	ter-
(2GG/	.	(2GG/	.	2B/	.	.	.
!	!	!	!	!	!	!LO:TX:t=P:problem:kreska pseudotaktowa	!
2AA/)	.	2AA/)	.	2A/	.	2e/	.
=22-	=22-	=22-	=22-	=22-	=22-	=22-	=22-
2E\	-ra	2E\	-ra	2G#X,/	ra	2e/	-ra
!LO:TX:t=P:problem:kreska pseudotaktowa	!	!LO:TX:t=P:problem:kreska pseudotaktowa	!	!LO:TX:t=P:problem:kreska pseudotaktowa	!	!	!
2r	.	2r	.	2A/	et	2r	.
00r	.	00r	.	2.Gn/	ger-	0r	.
!	!	!	!	!LO:TX:t=P:problem:kreska pseudotaktowa	!	!	!
.	.	.	.	4G/	-mi-	.	.
=23-	=23-	=23-	=23-	=23-	=23-	=23-	=23-
!	!	!	!	!	!	!LO:SIC:v:t=custos a	!
.	.	.	.	2F,/	-net	.	.
!	!	!	!	!LO:TX:t=P:problem:kreska pseudotaktowa	!	!	!
.	.	.	.	2D/	et	.	.
!	!	!	!	!	!	!LO:LB:g=original	!
.	.	.	.	(2E/	.	2r	.
.	.	.	.	2F/)	.	2a\	et
=24-	=24-	=24-	=24-	=24-	=24-	=24-	=24-
.	.	.	.	2.E/	ger-	2.gn/	ger-
!	!	!	!	!LO:TX:t=P:problem:kreska pseudotaktowa	!	!LO:TX:t=P:problem:kreska pseudotaktowa	!
.	.	.	.	4E/	-mi-	4g/	-mi-
!LO:TX:t=P:problem:kreska pseudotaktowa	!	!	!	!LO:LB:g=original	!	!	!
1r	.	1r	.	2D,/	-net	2f,/	-net
!	!	!	!	!	!	!LO:TX:t=P:problem:kreska pseudotaktowa	!
.	.	.	.	1G/	et	2d/	et
=25-	=25-	=25-	=25-	=25-	=25-	=25-	=25-
1E\	et	1E\	et	.	.	2e/	ger-
!	!	!	!	!LO:TX:t=P:problem:kreska pseudotaktowa	!	!	!
.	.	.	.	2E/	ger-	2c/	-mi-
2.D\	ger-	2.D/	ger-	4F/	.	2f,/	-net
.	.	.	.	4G/	.	.	.
!	!	!	!	!	!	!LO:TX:t=P:problem:kreska pseudotaktowa	!
.	.	.	.	4A/	.	2f/	et
!	!	!	!	!LO:TX:t=P:problem:kreska pseudotaktowa	!	!	!
4D/	-mi-	4D/	-mi-	4F/	.	.	.
=26-	=26-	=26-	=26-	=26-	=26-	=26-	=26-
2C,/	-net	2C,/	-net	2G/	.	2e/	ger-
!LO:TX:t=P:problem:kreska pseudotaktowa	!	!	!	!	!	!LO:TX:t=P:problem:kreska pseudotaktowa	!
2AA/	et	2AA/	et	2.A/	.	2f/	.
!LO:LB:g=original	!	!	!	!	!	!	!
2BB/	ger-	2BB/	ger-	.	.	2d/	.
.	.	.	.	4G/	.	.	.
!	!	!LO:TX:t=P:problem:kreska pseudotaktowa	!	!	!	!LO:TX:t=P:problem:kreska pseudotaktowa	!
2C/	.	2C/	.	4c\	.	2g\	.
!	!	!	!	!LO:TX:t=P:problem:kreska pseudotaktowa	!	!	!
.	.	.	.	4B\	.	.	.
!	!	!LO:LB:g=original	!	!	!	!	!
=27-	=27-	=27-	=27-	=27-	=27-	=27-	=27-
!LO:TX:t=P:problem:kreska pseudotaktowa	!	!	!	!	!	!	!
1D\	.	1D\	.	4A/	.	1f/	.
.	.	.	.	4G/	.	.	.
.	.	.	.	1A\	.	.	.
!LO:LB:g=original	!	!	!	!	!	!	!
2.E\	.	2.E\	.	.	.	2.e/	.
!	!	!	!	!LO:TX:t=P:problem:kreska pseudotaktowa	!	!	!
!	!	!	!	!LO:TX:t=P:problem:♯ above	!	!	!
.	.	.	.	2G#X/	-mi-	.	.
!	!	!LO:TX:t=P:problem:kreska pseudotaktowa	!	!	!	!LO:TX:t=P:problem:kreska pseudotaktowa	!
4E\	-mi-	4E\	-mi-	.	.	4e/	-mi-
=28-	=28-	=28-	=28-	=28-	=28-	=28-	=28-
!	!	!	!	!	!	!LO:TX:t=P:problem:kreska pseudotaktowa	!
2AA,/	-net	2AA/	-net	2A,/	-net	1e/	-net
*	*ij	*	*	*	*	*	*
2.E\	ger-	2.E\	ger-	2.G/	ger-	.	.
.	.	.	.	.	.	2r	.
4E\	-mi-	4E\	-mi-	4G/	-mi-	.	.
!LO:TX:t=P:problem:kreska pseudotaktowa	!	!LO:TX:t=P:problem:kreska pseudotaktowa	!	!LO:TX:t=P:problem:kreska pseudotaktowa	!	!	!
2E\	-net	2E\	-net	2E,/	-net	2g\	et
*	*Xij	*	*	*	*	*	*
=29-	=29-	=29-	=29-	=29-	=29-	=29-	=29-
2C/	Sal-	2C/	Sal-	2c\	Sal-	2.g\	ger-
!	!	!	!	!LO:TX:t=P:problem:kreska pseudotaktowa	!	!	!
2C/	-va-	2C/	-va-	2c\	-va-	.	.
!	!	!	!	!	!	!LO:TX:t=P:problem:kreska pseudotaktowa	!
.	.	.	.	.	.	4g\	-mi-
!	!	!LO:TX:t=P:problem:kreska pseudotaktowa	!	!	!	!	!
1C/	-to-	1C/	-to-	2c\	-to-	2g,\	-net
*	*	*	*	*	*	*	*ij
!	!	!	!	!LO:TX:t=P:problem:kreska pseudotaktowa	!	!	!
.	.	.	.	2G/	.	[<2cc\	ger-
=30-	=30-	=30-	=30-	=30-	=30-	=30-	=30-
!	!	!	!	!	!	!LO:N:xstem:cue	!
2AA,/	-rem	2AA,/	-rem	2A,\	-rem	4cc\]	.
.	.	.	.	.	.	4b\	-mi-
*	*	*	*	*	*ij	*	*
2A\	et	2A\	ger-	1c\	Sal-	2a,\	-net
*	*	*	*	*	*	*	*Xij
!	!	!	!	!	!	!LO:TX:t=P:problem:kreska pseudotaktowa	!
2.F\	ger-	2.F\	.	.	.	1a\	et
.	.	.	.	4B\	va-	.	.
4F\	-mi-	4F\	-mi-	4A\	.	.	.
!	!	!	!	!	!	!LO:LB:g=original	!
=31-	=31-	=31-	=31-	=31-	=31-	=31-	=31-
!LO:TX:t=P:problem:kreska pseudotaktowa	!	!LO:TX:t=P:problem:kreska pseudotaktowa	!	!	!	!	!
1E\	-net	1E\,	-net	1B\	-to-	2g\	ger-
.	.	.	.	.	.	2g\	-mi-
1C#X/	Sal-	1C#X/	Sal-	2A,/	-rem	2g,/	-net
*	*	*	*	*	*Xij	*	*
.	.	.	.	2A/	Sal-	1g\	Sal-
=32-	=32-	=32-	=32-	=32-	=32-	=32-	=32-
!	!	!	!	!LO:TX:t=P:problem:kreska pseudotaktowa	!	!	!
1D\	-va-	1D\	-va-	1A\	-va-	.	.
!	!	!	!	!LO:LB:g=original	!	!	!
!	!	!	!	!	!	!LO:TX:t=P:problem:kreska pseudotaktowa	!
.	.	.	.	.	.	2f/	-va-
0E\	-to-	0E\	-to-	2G#X/	-to-	0e/	-to-
.	.	.	.	1A\	.	.	.
=33-	=33-	=33-	=33-	=33-	=33-	=33-	=33-
.	.	.	.	2G#X/	.	.	.
0AA/	-rem	0AA/	-rem	0A\	-rem	0e/	-rem
=34-	=34-	=34-	=34-	=34-	=34-	=34-	=34-
!	!	!	!	!LO:TX:t=P:problem:♯ below	!	!	!
00E\;	.	00E\;	.	00G#X/;	.	00e/;	.
=35||-	=35||-	=35||-	=35||-	=35||-	=35||-	=35||-	=35||-
*M2/1	*	*M2/1	*	*M2/1	*	*M2/1	*
*met(C|)	*	*met(C|)	*	*met(C|)	*	*met(C|)	*
!LO:TX:t=P:problem:oznaczenie metryczne C|	!	!LO:TX:t=P:problem:oznaczenie metryczne C|	!	!LO:TX:t=P:problem:oznaczenie metryczne C|	!	!LO:TX:t=P:problem:oznaczenie metryczne C|	!
00r	.	00r	.	00r	.	1bn\	Be-
=36-	=36-	=36-	=36-	=36-	=36-	=36-	=36-
.	.	.	.	.	.	2a\	-ne-
!	!	!	!	!	!	!LO:TX:t=P:problem:kreska pseudotaktowa	!
.	.	.	.	.	.	2g\	-di-
.	.	.	.	.	.	2cc\	-xi-
!	!	!	!	!	!	!LO:TX:t=P:problem:kreska pseudotaktowa	!
.	.	.	.	.	.	2b\	-sti
=37-	=37-	=37-	=37-	=37-	=37-	=37-	=37-
!	!	!LO:SIC:v:t=custos E	!	!	!	!	!
.	.	.	.	.	.	2re	.
!	!	!LO:TX:t=P:problem:kreska pseudotaktowa	!	!	!	!LO:TX:t=P:problem:kreska pseudotaktowa	!
*	*	*	*	*	*	*	*ij
.	.	.	.	.	.	2e/	Be-
!LO:TX:t=P:problem:kreska pseudotaktowa	!	!	!	!LO:TX:t=P:problem:kreska pseudotaktowa	!	!	!
1r	.	1r	.	00r	.	2b\	-ne-
!	!	!	!	!	!	!LO:TX:t=P:problem:kreska pseudotaktowa	!
.	.	.	.	.	.	2a\	-di-
!	!	!LO:LB:g=original	!	!	!	!	!
=38-	=38-	=38-	=38-	=38-	=38-	=38-	=38-
1E\	Be-	1E\	Be-	.	.	1g\	-xi-
2D/	-ne-	2D/	-ne-	.	.	2fn,/	-sti
*	*	*	*	*	*	*	*Xij
!LO:TX:t=P:problem:kreska pseudotaktowa	!	!LO:TX:t=P:problem:kreska pseudotaktowa	!	!	!	!	!
2C/	-di-	2C/	-di-	.	.	1e/	Do-
!LO:LB:g=original	!	!	!	!	!	!	!
=39-	=39-	=39-	=39-	=39-	=39-	=39-	=39-
1F\	-xi-	1F\	-xi-	.	.	.	.
.	.	.	.	.	.	2d/	-mi-
!LO:TX:t=P:problem:kreska pseudotaktowa	!	!LO:TX:t=P:problem:kreska pseudotaktowa	!	!	!	!LO:TX:t=P:problem:kreska pseudotaktowa	!
1E\,	-ſti	1E\,	-sti	2r	.	1e/	-ne
!	!	!	!	!LO:TX:t=P:problem:kreska pseudotaktowa	!	!	!
.	.	.	.	2B\	Be-	.	.
=40-	=40-	=40-	=40-	=40-	=40-	=40-	=40-
2AA/	Do-	2AA/	Do-	2A/	-ne-	2re	.
!	!	!	!	!	!	!LO:TX:t=P:problem:kreska pseudotaktowa	!
2BB/	.	2BB/	.	2G/	-di-	2g\	be-
1.C/	.	1.C/	.	1.c\	-xi-	2g\	-ne-
!	!	!	!	!	!	!LO:TX:t=P:problem:kreska pseudotaktowa	!
.	.	.	.	.	.	2g\	-di-
!	!	!	!	!	!	!LO:LB:g=original	!
=41-	=41-	=41-	=41-	=41-	=41-	=41-	=41-
.	.	.	.	.	.	2g/	-xi-
!LO:TX:t=P:problem:kreska pseudotaktowa	!	!	!	!LO:TX:t=P:problem:kreska pseudotaktowa	!	!LO:TX:t=P:problem:kreska pseudotaktowa	!
2D\	.	2D/	.	2A/	-sti	2f/	-sti
1.E\	.	1.E\	.	2G#X/	Do-	1.e/	Do-
.	.	.	.	1A\	.	.	.
=42-	=42-	=42-	=42-	=42-	=42-	=42-	=42-
!LO:TX:t=P:problem:kreska pseudotaktowa	!	!LO:TX:t=P:problem:kreska pseudotaktowa	!	!	!	!LO:TX:t=P:problem:kreska pseudotaktowa	!
2E\	-mi-	2E\	-mi-	2G#X/	-mi-	2e/	-mi-
2AA,/	-ne	2AA,/	-ne	2A,/	-ne	2e,/	-ne
1D\	ter-	1D\	ter-	1A\	ter-	1f#X/	ter-
=43-	=43-	=43-	=43-	=43-	=43-	=43-	=43-
!LO:TX:t=P:problem:kreska pseudotaktowa	!	!LO:TX:t=P:problem:kreska pseudotaktowa	!	!LO:TX:t=P:problem:kreska pseudotaktowa	!	!	!
2D\	-ra(m)	2D\	-ram	2A\	-ram	2f#X/	-ram
!	!	!LO:TX:t=P:problem:kreska pseudotaktowa	!	!	!	!LO:TX:t=P:problem:kreska pseudotaktowa	!
1G\	tu-	1G\	tu-	1B\	tu-	1gn\	tu-
=44-	=44-	=44-	=44-	=44-	=44-	=44-	=44-
2C,/	-a(m)	2C,/	-am	2c,\	-a(m)	2g,\	-am
1AA/	ter-	1AA/	ter-	1c\	ter-	1a\	ter-
!LO:TX:t=P:problem:kreska pseudotaktowa	!	!LO:TX:t=P:problem:kreska pseudotaktowa	!	!LO:TX:t=P:problem:kreska pseudotaktowa	!	!LO:TX:t=P:problem:kreska pseudotaktowa	!
2GG/	-ra(m)	2GG,/	-ram	2B\	-ram	2b,\	-ram
=45-	=45-	=45-	=45-	=45-	=45-	=45-	=45-
2AA/	tu-	2AA/	tu-	2A/	tu-	2cc\	tu-
!LO:TX:t=P:problem:kreska pseudotaktowa	!	!LO:TX:t=P:problem:kreska pseudotaktowa	!	!LO:TX:t=P:problem:kreska pseudotaktowa	!	!LO:TX:t=P:problem:kreska pseudotaktowa	!
2E,\	-a(m)	2E,\	-am	2Gn,/	-am	2b,\	-am
2E\	a-	2E\	a-	2Bn\	a-	2g/	A-
!	!	!	!	!LO:SIC:v:t=custos e	!	!	!
!	!	!LO:TX:t=P:problem:kreska pseudotaktowa	!	!LO:TX:t=P:problem:kreska pseudotaktowa	!	!LO:TX:t=P:problem:kreska pseudotaktowa	!
2A\	-ver-	2A\	-ver-	2c\	-ver-	2a\	-ver-
!	!	!	!	!LO:LB:g=original	!	!	!
=46-	=46-	=46-	=46-	=46-	=46-	=46-	=46-
(2A\	-ti-	2A\	-ti-	1e\	-ti-	(2cc\	-ti-
!	!	!LO:SIC:v:t=custos F	!	!	!	!	!
!LO:TX:t=P:problem:kreska pseudotaktowa	!	!LO:TX:t=P:problem:kreska pseudotaktowa	!	!	!	!LO:TX:t=P:problem:kreska pseudotaktowa	!
2E\)	.	2E\	.	.	.	2b\)	.
!	!	!LO:LB:g=original	!	!	!	!	!
2F,\	-ſti	2F,\	-sti	2c,\	-sti	2a,\	-sti
!	!	!LO:TX:t=P:problem:kreska pseudotaktowa	!	!LO:TX:t=P:problem:kreska pseudotaktowa	!	!LO:TX:t=P:problem:kreska pseudotaktowa	!
2C/	ca-	2C/	Ca-	2e\	ca-	(2cc\	a-
=47-	=47-	=47-	=47-	=47-	=47-	=47-	=47-
2G\	-pti-	2G\	-pti-	2d\	-pti-	2b\)	.
!	!	!LO:TX:t=P:problem:kreska pseudotaktowa	!	!LO:TX:t=P:problem:kreska pseudotaktowa	!	!LO:TX:t=P:problem:kreska pseudotaktowa	!
2A\	-vi-	2A\	-vi-	2c\	-vi-	[<2cc\	-ver-
!LO:TX:t=P:problem:kreska pseudotaktowa	!	!	!	!	!	!	!
1G\	-ta-	1G\	-ta-	1d\	-ta-	2cc\]	.
.	.	.	.	.	.	2b\	-ti-
!LO:LB:g=original	!	!	!	!	!	!	!
=48-	=48-	=48-	=48-	=48-	=48-	=48-	=48-
2C,/	-tem	2C,/	-tem	2e,\	-tem	2cc,\	-sti
!	!	!	!	!LO:TX:t=P:problem:kreska pseudotaktowa	!	!LO:TX:t=P:problem:kreska pseudotaktowa	!
*	*	*	*	*	*ij	*	*
!	!	!LO:TX:t=P:problem:kreska pseudotaktowa	!	!	!	!	!
2C/	ca-	2C/	ca-	2c\	ca-	2g/	ca-
!	!	!	!	!	!	!LO:LB:g=original	!
2D\	-pti-	2D\	-pti-	2A/	-pti-	2fn/	-pti-
2E\	-vi-	2E\	-vi-	2G/	-vi-	2e/	-vi-
=49-	=49-	=49-	=49-	=49-	=49-	=49-	=49-
!LO:TX:t=P:problem:kreska pseudotaktowa	!	!LO:TX:t=P:problem:kreska pseudotaktowa	!	!	!	!	!
1F\	-ta-	1F\	-ta-	1A\	-ta-	2.a\	-ta-
!	!	!	!	!	!	!LO:TX:t=P:problem:kreska pseudotaktowa	!
.	.	.	.	.	.	4a\	-tem
2E,\	-tem	2E,\	-tem	2B,\	-tem	(2g\	Ja-
*	*ij	*	*	*	*Xij	*	*
!	!	!LO:TX:t=P:problem:kreska pseudotaktowa	!	!	!	!	!
2A\	ca-	2A\	Ca-	2c\	ca-	2a\)	.
=50-	=50-	=50-	=50-	=50-	=50-	=50-	=50-
2E\	-pti-	2E\	-pti-	2c\	-pti-	2bn\	.
!LO:TX:t=P:problem:kreska pseudotaktowa	!	!	!	!LO:TX:t=P:problem:kreska pseudotaktowa	!	!	!
2F\	-vi-	2F\	-vi-	2c\	-vi-	2a\	.
1.C/	-ta-	1.C/	-ta-	2c\	-ta-	1.g\	.
!	!	!	!	!LO:TX:t=P:problem:kreska pseudotaktowa	!	!	!
.	.	.	.	2A/	-tem	.	.
=51-	=51-	=51-	=51-	=51-	=51-	=51-	=51-
.	.	.	.	1.A\	Ja-	.	.
!	!	!LO:TX:t=P:problem:kreska pseudotaktowa	!	!	!	!LO:TX:t=P:problem:kreska pseudotaktowa	!
2D,\	-tem	2D/	-tem	.	.	2f/	.
*	*Xij	*	*	*	*	*	*
1AA/	Ja-	1AA/	Ja-	.	.	1e/	.
.	.	.	.	4G#X/	.	.	.
!	!	!	!	!LO:SIC:v:s=4F#	!	!	!
.	.	.	.	4F/	.	.	.
=52-	=52-	=52-	=52-	=52-	=52-	=52-	=52-
!	!	!	!	!	!	!LO:TX:b:t=Verte	!
!	!	!	!	!	!	!LO:SIC:v:t=custos a	!
00E\;	-cob.	00E\;	-cob.	00G#X/;	-cob.	00e/;	-cob.
!	!	!	!	!	!	!LO:LB:g=original	!
=53||-	=53||-	=53||-	=53||-	=53||-	=53||-	=53||-	=53||-
*M2/1	*	*M2/1	*	*M2/1	*	*M2/1	*
*met(C|)	*	*met(C|)	*	*met(C|)	*	*met(C|)	*
!LO:TX:t=P:problem:oznaczenie metryczne C|	!	!LO:TX:t=P:problem:oznaczenie metryczne C|	!	!LO:TX:t=P:problem:oznaczenie metryczne C|	!	!LO:TX:t=P:problem:oznaczenie metryczne C|	!
!	!	!	!	!	!	!LO:TX:t=P:problem:kreska pseudotaktowa	!
1A\	Glo-	1A\	Glo-	1c\	Glo-	1a\	Glo-
2D\	-ri-	2D/	-ri-	2d\	-ri-	2a\	-ri-
!LO:TX:t=P:problem:kreska pseudotaktowa	!	!LO:TX:t=P:problem:kreska pseudotaktowa	!	!	!	!	!
2G\	-a	2G\	-a	2B\	-a	2g/	-a
=54-	=54-	=54-	=54-	=54-	=54-	=54-	=54-
!	!	!	!	!LO:TX:t=P:problem:kreska pseudotaktowa	!	!LO:TX:t=P:problem:kreska pseudotaktowa	!
1F\	Pa-	1F\	Pa-	1c\	Pa-	1a\	Pa-
!	!	!	!	!LO:LB:g=original	!	!	!
2C/	-tri	2C,/	-tri	2c,\	-tri	2g/	-tri
!LO:TX:t=P:problem:kreska pseudotaktowa	!	!LO:TX:t=P:problem:kreska pseudotaktowa	!	!	!	!	!
!	!	!LO:SIC:v:t=custos E	!LO:TX:t=P:problem:kreska pseudotaktowa	!	!	!	!
2D\	et	2D/	et	2A/	et	2f/	et
!	!	!LO:LB:g=original	!	!	!	!	!
=55-	=55-	=55-	=55-	=55-	=55-	=55-	=55-
2.E\	Fi-	2.E\	Fi-	2A/	Fi-	2.e/	Fi-
!	!	!	!	!LO:TX:t=P:problem:kreska pseudotaktowa	!	!	!
.	.	.	.	2G#X/	-li-	.	.
4E\	-li-	4E\	-li-	.	.	4e/	-li-
!	!	!	!	!LO:TX:t=P:problem:kreska pseudotaktowa	!	!	!
2AA/	-o	2AA,/	-o	1A\,	-o	1e/,	-o
1A\	et	1A\	et	.	.	.	.
=56-	=56-	=56-	=56-	=56-	=56-	=56-	=56-
.	.	.	.	0r	.	2e/	et
1G\	.	(1G\	.	.	.	2e/	Spi-
.	.	.	.	.	.	2e/	-ri-
!LO:TX:t=P:problem:kreska pseudotaktowa	!	!LO:TX:t=P:problem:kreska pseudotaktowa	!	!	!	!	!
2A\	Spi-	2A,\)	.	.	.	4e/	-tu-
!	!	!	!	!	!	!LO:TX:t=P:problem:kreska pseudotaktowa	!
.	.	.	.	.	.	4e/	-i
!LO:LB:g=original	!	!	!	!	!	!	!
=57-	=57-	=57-	=57-	=57-	=57-	=57-	=57-
2B\	-ri-	2B\	Spi-	2r	.	1g\	San-
!	!	!	!	!LO:TX:t=P:problem:kreska pseudotaktowa	!	!	!
2.G\	.	2.G\	-ri-	2B\	et	.	.
.	.	.	.	2B\	Spi-	1.g\	-cto
4F\	-tu-	4F\	-tu-	.	.	.	.
1E\	-i	1E\	-i	2.B\	-ri-	.	.
=58-	=58-	=58-	=58-	=58-	=58-	=58-	=58-
.	.	.	.	4c\	-tu-	.	.
!LO:TX:t=P:problem:kreska pseudotaktowa	!	!LO:TX:t=P:problem:kreska pseudotaktowa	!	!LO:TX:t=P:problem:kreska pseudotaktowa	!	!LO:TX:t=P:problem:kreska pseudotaktowa	!
2D\	San-	2D\	San-	2d\	-i	[2a\	et
1E\	.	1E\	.	(2c\	San-	2a\]	.
!	!	!	!	!	!	!LO:TX:t=P:problem:kreska pseudotaktowa	!
!	!	!	!	!LO:TX:t=P:problem:kreska pseudotaktowa	!	!LO:SIC:v:t=custos g	!
.	.	.	.	2B\)	.	2g/	Spi-
!	!	!	!	!	!	!LO:LB:g=original	!
=59-	=59-	=59-	=59-	=59-	=59-	=59-	=59-
2E,\	-cto	2E,\	-cto	2B,\	-cto	2g\	-ri-
!LO:TX:t=P:problem:kreska pseudotaktowa	!	!LO:TX:t=P:problem:kreska pseudotaktowa	!	!LO:TX:t=P:problem:kreska pseudotaktowa	!	!LO:TX:t=P:problem:kreska pseudotaktowa	!
2AA/	Spi-	2AA/	Spi-	2A/	Spi-	2a\	.
1E\	-ri-	1E\	-ri-	2G/	-ri-	2b\	.
.	.	.	.	2B\	-tu-	2.g/	.
=60-	=60-	=60-	=60-	=60-	=60-	=60-	=60-
2C/	-tu-	2C/	-tu-	2c,\	-i	.	.
.	.	.	.	.	.	4f/	-tu-
!LO:TX:t=P:problem:kreska pseudotaktowa	!	!LO:TX:t=P:problem:kreska pseudotaktowa	!	!LO:TX:t=P:problem:kreska pseudotaktowa	!	!LO:TX:t=P:problem:kreska pseudotaktowa	!
2C,/	-i	2C,/	-i	2G/	San-	2e/	-i
1F\	S(an)-	1F\	San-	2A/	.	2e/	San-
!	!	!	!	!	!	!LO:TX:t=P:problem:kreska pseudotaktowa	!
.	.	.	.	4G/	.	2d/	.
!	!	!	!	!LO:TX:t=P:problem:kreska pseudotaktowa	!	!	!
.	.	.	.	4F/	.	.	.
=61-	=61-	=61-	=61-	=61-	=61-	=61-	=61-
2E,\	-cto.	2E,\	-cto	2G,/	-cto	2e,/	-cto.
1A\	Si-	1A\	Si-	1c\	Si-	1a\	Si-
!LO:TX:t=P:problem:kreska pseudotaktowa	!	!LO:TX:t=P:problem:kreska pseudotaktowa	!	!	!	!LO:TX:t=P:problem:kreska pseudotaktowa	!
2A\	-cut	2A\	-cut	2c\	-cut	2a\	-cut
=62-	=62-	=62-	=62-	=62-	=62-	=62-	=62-
!	!	!	!	!LO:TX:t=P:problem:kreska pseudotaktowa	!	!LO:TX:t=P:problem:kreska pseudotaktowa	!
1F\	e-	1F\	e-	1c\	e-	1a\	e-
!	!	!	!	!LO:LB:g=original	!	!	!
2C,/	-rat	2C,/	-rat	2c,\	-rat	2g,\	-rat
1G\	in	1G\	in	1d\	in	1b\	in
=63-	=63-	=63-	=63-	=63-	=63-	=63-	=63-
!LO:TX:t=P:problem:kreska pseudotaktowa	!	!	!	!LO:TX:t=P:problem:kreska pseudotaktowa	!	!LO:TX:t=P:problem:kreska pseudotaktowa	!
2G\	prin-	2G\	prin-	2d\	prin-	2b\	prin-
2.A\	-ci-	2.A\	-ci-	2.c\	-ci-	2.cc\	-ci-
!LO:TX:t=P:problem:kreska pseudotaktowa	!	!LO:TX:t=P:problem:kreska pseudotaktowa	!	!LO:TX:t=P:problem:kreska pseudotaktowa	!	!LO:TX:t=P:problem:kreska pseudotaktowa	!
4A\	-pi-	4A\	-pi-	4c\	-pi-	4cc\	-pi-
!	!	!LO:LB:g=original	!	!	!	!	!
=64-	=64-	=64-	=64-	=64-	=64-	=64-	=64-
2G,\	-o	2G,\	-o,	2d,\	-o	2b,\	-o
!LO:SIC:v:t=custos D	!	!	!	!	!	!	!
!LO:TX:t=P:problem:kreska pseudotaktowa	!	!LO:TX:t=P:problem:kreska pseudotaktowa	!	!LO:TX:t=P:problem:kreska pseudotaktowa	!	!LO:TX:t=P:problem:kreska pseudotaktowa	!
2C/	et	2C/	et	2e\	et	2cc\	et
!LO:LB:g=original	!	!	!	!	!	!	!
2D\	nunc	2D\	nunc	2d\	nunc	2a\	nunc
!	!	!	!	!	!	!LO:SIC:v:t=custos a	!
!LO:TX:t=P:problem:kreska pseudotaktowa	!	!	!	!	!	!LO:TX:t=P:problem:kreska pseudotaktowa	!
2E\	et	2E\	et	2B\	et	2g\	et
!	!	!	!	!	!	!LO:LB:g=original	!
=65-	=65-	=65-	=65-	=65-	=65-	=65-	=65-
!	!	!LO:TX:t=P:problem:kreska pseudotaktowa	!	!LO:TX:t=P:problem:kreska pseudotaktowa	!	!LO:TX:t=P:problem:kreska pseudotaktowa	!
1F\	sem-	1F\	sem-	1A\	sem-	1a\	sem-
2E,\	-per	2E,\	-per	2B,\	-per	2g#X,\	-per
1A\	et	1A\	et	1c\	et	1a\	et
=66-	=66-	=66-	=66-	=66-	=66-	=66-	=66-
!	!	!LO:TX:t=P:problem:kreska pseudotaktowa	!	!LO:TX:t=P:problem:kreska pseudotaktowa	!	!	!
2A\	in	2A\	in	2c\	in	2a\	in
2.D\	sae-	2.D/	sae-	2.d\	sae-	2.a\	sae-
!LO:TX:t=P:problem:kreska pseudotaktowa	!	!LO:TX:t=P:problem:kreska pseudotaktowa	!	!LO:TX:t=P:problem:kreska pseudotaktowa	!	!LO:TX:t=P:problem:kreska pseudotaktowa	!
4D\	-cu-	4D/	-cu-	4d\	-cu-	4a\	-cu-
=67-	=67-	=67-	=67-	=67-	=67-	=67-	=67-
2G,\	-la	2G,\	-la	2d,\	-la	2b,\	-la
1E\	sae-	1E\	sae-	1e\	sae-	1b\	sae-
!LO:TX:t=P:problem:kreska pseudotaktowa	!	!LO:TX:t=P:problem:kreska pseudotaktowa	!	!LO:TX:t=P:problem:kreska pseudotaktowa	!	!LO:TX:t=P:problem:kreska pseudotaktowa	!
2C/	-cu-	2C/	-cu-	2e\	-cu-	2cc\	-cu-
=68-	=68-	=68-	=68-	=68-	=68-	=68-	=68-
(1D\	-lo-	(1D\	-lo-	2d\	-lo-	2a\	-lo-
.	.	.	.	2d,\	-rum	1a\	-rum
1E\)	.	1E\)	.	1B\	A-	.	.
.	.	.	.	.	.	2g#X/	A-
=69-	=69-	=69-	=69-	=69-	=69-	=69-	=69-
!LO:TX:t=P:problem:kreska pseudotaktowa	!	!LO:TX:t=P:problem:kreska pseudotaktowa	!	!LO:TX:t=P:problem:kreska pseudotaktowa	!	!LO:TX:t=P:problem:kreska pseudotaktowa	!
1AA/,	-rum	1AA/	-rum	1c\,	-men	1a\,	-men
1E\	A-	1E\	A-	1B\	A-	1.gn\	A-
=70-	=70-	=70-	=70-	=70-	=70-	=70-	=70-
2C/	.	2C/	.	1.A\	.	.	.
!	!	!LO:TX:t=P:problem:kreska pseudotaktowa	!	!	!	!LO:TX:t=P:problem:kreska pseudotaktowa	!
2D\	.	2D/	.	.	.	2f/	.
1AA/	.	1AA/	.	.	.	1e/	.
.	.	.	.	4G#X/	.	.	.
!	!	!	!	!LO:SIC:v:s=4F#	!	!	!
.	.	.	.	4F/	.	.	.
=71-	=71-	=71-	=71-	=71-	=71-	=71-	=71-
00E\;	-men.	00E\;	-men.	00G#X/;	-men.	00e/;	-men
==	==	==	==	==	==	==	==
*-	*-	*-	*-	*-	*-	*-	*-
!!!system-decoration: [(s1,s2,s3)][(s4)]
!!!EED: Leszek Kubiak
!!!EST: 2021-03-02
!!!AIN: 2 empty 1 tenor 1 vox
!!!ENC: Andrzej Kubiczek
!!!END: 2021-02-18
